Icons/UnComment.svg

<svg viewBox="0 0 16 16" xmlns="http://www.w3.org/2000/svg">
 <g fill="none"><path d="m7 5.5h8" stroke="#50ff00"/><path d="m5 8.5h10" stroke="#50ff00"/><path d="m7 11.5h8" stroke="#808080"/><path d="m4 14.5h11" stroke="#808080"/><path d="m4.0517177.87386242-.6142281 2.73321758 2.8013842-.0007503" stroke="#4d82b8" stroke-linecap="round" stroke-linejoin="round" stroke-width=".875001"/></g><path d="m3.5056676 2.9921157.546789.6831168 2.7324672-2.187156a1.7500021 1.7500021 0 0 1 2.459812.2726557 1.7500021 1.7500021 0 0 1 -.2726558 2.4598117c-.1892234.1514606-.2196245.4257295-.0681639.6149529s.4257297.2196245.6149527.0681639a2.6250031 2.6250031 0 0 0 .408983-3.6897175 2.6250031 2.6250031 0 0 0 -3.6897171-.40898348z" fill="#4d82b8" stroke-width=".437501"/></svg>

<?xml version="1.0" encoding="UTF-8" standalone="no"?>
<svg
   xmlns:dc="http://purl.org/dc/elements/1.1/"
   xmlns:cc="http://creativecommons.org/ns#"
   xmlns:rdf="http://www.w3.org/1999/02/22-rdf-syntax-ns#"
   xmlns:svg="http://www.w3.org/2000/svg"
   xmlns="http://www.w3.org/2000/svg"
   xmlns:sodipodi="http://sodipodi.sourceforge.net/DTD/sodipodi-0.dtd"
   xmlns:inkscape="http://www.inkscape.org/namespaces/inkscape"
   viewBox="0 0 16 16"
   version="1.1"
   id="svg10"
   sodipodi:docname="UnComment.svg"
   inkscape:version="0.92.4 (5da689c313, 2019-01-14)"
   inkscape:export-filename="C:\Users\Kalama\Documents\GitHub\CodeLab-bb\Icons\UnComment.32.png"
   inkscape:export-xdpi="192"
   inkscape:export-ydpi="192"><metadata
   id="metadata16">
  <rdf:RDF>
    <cc:Work
       rdf:about="">
      <dc:format>image/svg+xml</dc:format>
      <dc:type
         rdf:resource="http://purl.org/dc/dcmitype/StillImage" />
    </cc:Work>
  </rdf:RDF>
</metadata>
<defs
   id="defs14" />
<sodipodi:namedview
   pagecolor="#ffffff"
   bordercolor="#666666"
   borderopacity="1"
   objecttolerance="10"
   gridtolerance="10"
   guidetolerance="10"
   inkscape:pageopacity="0"
   inkscape:pageshadow="2"
   inkscape:window-width="944"
   inkscape:window-height="1002"
   id="namedview12"
   showgrid="false"
   showguides="false"
   inkscape:zoom="14.75"
   inkscape:cx="6.0758799"
   inkscape:cy="0.76366648"
   inkscape:window-x="0"
   inkscape:window-y="0"
   inkscape:window-maximized="0"
   inkscape:current-layer="g4655" />







     /&amp;gt;
 <g
   id="g4655"
   inkscape:export-xdpi="96"
   inkscape:export-ydpi="96">
  <path
     style="fill:none;stroke:#50ff00;stroke-width:1px;stroke-linecap:butt;stroke-linejoin:miter;stroke-opacity:1"
     d="m 7,5.5 h 8"
     id="path827"
     inkscape:connector-curvature="0"
     sodipodi:nodetypes="cc" />
  <path
     style="fill:none;stroke:#50ff00;stroke-width:1px;stroke-linecap:butt;stroke-linejoin:miter;stroke-opacity:1"
     d="M 5,8.5 H 15"
     id="path829"
     inkscape:connector-curvature="0"
     sodipodi:nodetypes="cc" />
  <path
     style="fill:none;stroke:#808080;stroke-width:1px;stroke-linecap:butt;stroke-linejoin:miter;stroke-opacity:1"
     d="m 7,11.5 h 8"
     id="path833"
     inkscape:connector-curvature="0"
     sodipodi:nodetypes="cc" />
  <path
     style="fill:none;stroke:#808080;stroke-width:1px;stroke-linecap:butt;stroke-linejoin:miter;stroke-opacity:1"
     d="M 4,14.5 H 15"
     id="path835"
     inkscape:connector-curvature="0"
     sodipodi:nodetypes="cc" />
  <path
     inkscape:connector-curvature="0"
     style="fill:none;stroke:#4d82b8;stroke-width:0.87500107;stroke-linecap:round;stroke-linejoin:round"
     d="M 4.0517177,0.87386242 3.4374896,3.60708 6.2388738,3.6063297"
     id="path2" />
  <path
     inkscape:connector-curvature="0"
     style="fill:#4d82b8;stroke-width:0.43750054"
     d="m 3.5056676,2.9921157 0.546789,0.6831168 2.7324672,-2.187156 A 1.7500021,1.7500021 0 0 1 9.2447358,1.7607322 1.7500021,1.7500021 0 0 1 8.97208,4.2205439 C 8.7828566,4.3720045 8.7524555,4.6462734 8.9039161,4.8354968 9.0553767,5.0247202 9.3296458,5.0551213 9.5188688,4.9036607 A 2.6250031,2.6250031 0 0 0 9.9278518,1.2139432 2.6250031,2.6250031 0 0 0 6.2381347,0.80495972 Z"
     id="path4" />
</g>
</svg>
